X: 182
T: Beckasinen
S: Skinnar Albin
O: Malung, Dalarna
D: Kalle Almlöf - Lejsmelåtar
Z:Transcribed to abcby Jon Magnusson 080430
R: Vals
M: 3/4
L: 1/8
K: Am
~c3d ef |({e^f}e2) dB c2|({e^f}e2) dB ^G2|({e}f2e)c A2|~c3d ef|({e^f}e2)dB c2|({e^f}e2) dB ^GB|A6:|:
[K: G](B2~c2)d2|_e2dB G2|~B2 (AG) FG|~A2 GF D2|(B2c2)d2|e2 dB G2|~B2 AG FA| G6:|
(:musicend:)

(:music:)
